components/Common/Svg/svgs/uiDesign.svg

<svg
  width="90"
  height="90"
  viewBox="0 0 90 90"
  fill="none"
  xmlns="http://www.w3.org/2000/svg"
>
  <circle
    opacity="0.5"
    cx="45"
    cy="45"
    r="45"
    fill="#FFE603"
  ></circle>
  <rect
    x="30.1797"
    y="30.1781"
    width="29.5327"
    height="29.5327"
    stroke="#161616"
    stroke-width="2"
  ></rect>
  <path
    d="M33.8008 32.5439V26.2573C33.8008 25.5629 33.2379 25 32.5435 25H26.2569C25.5625 25 24.9996 25.5629 24.9996 26.2573V32.5439C24.9996 33.2382 25.5625 33.8012 26.2569 33.8012H32.5435C33.2379 33.8012 33.8008 33.2382 33.8008 32.5439Z"
    fill="#FFF281"
    stroke="#161616"
    stroke-width="2"
    stroke-linecap="round"
    stroke-linejoin="round"
  ></path>
  <path
    d="M33.7969 62.8927V56.6062C33.7969 55.9118 33.234 55.3489 32.5396 55.3489H26.253C25.5586 55.3489 24.9957 55.9118 24.9957 56.6062V62.8927C24.9957 63.5871 25.5586 64.15 26.253 64.15H32.5396C33.234 64.15 33.7969 63.5871 33.7969 62.8927Z"
    fill="#FFF281"
    stroke="#161616"
    stroke-width="2"
    stroke-linecap="round"
    stroke-linejoin="round"
  ></path>
  <path
    d="M64.1484 32.5439V26.2573C64.1484 25.5629 63.5855 25 62.8911 25H56.6046C55.9102 25 55.3473 25.5629 55.3473 26.2573V32.5439C55.3473 33.2382 55.9102 33.8012 56.6046 33.8012H62.8911C63.5855 33.8012 64.1484 33.2382 64.1484 32.5439Z"
    fill="#FFF281"
    stroke="#161616"
    stroke-width="2"
    stroke-linecap="round"
    stroke-linejoin="round"
  ></path>
  <path
    d="M64.1484 62.8927V56.6062C64.1484 55.9118 63.5855 55.3489 62.8911 55.3489H56.6046C55.9102 55.3489 55.3473 55.9118 55.3473 56.6062V62.8927C55.3473 63.5871 55.9102 64.15 56.6046 64.15H62.8911C63.5855 64.15 64.1484 63.5871 64.1484 62.8927Z"
    fill="#FFF281"
    stroke="#161616"
    stroke-width="2"
    stroke-linecap="round"
    stroke-linejoin="round"
  ></path>
</svg>

<svg width="90" height="90" viewBox="0 0 90 90" fill="none" xmlns="http://www.w3.org/2000/svg"><circle opacity=".5" cx="45" cy="45" r="45" fill="#FFE603"/><path stroke="#161616" stroke-width="2" d="M30.18 30.178h29.533v29.533H30.18z"/><path d="M33.8 32.544v-6.287c0-.694-.562-1.257-1.256-1.257h-6.287c-.695 0-1.257.563-1.257 1.257v6.287c0 .694.563 1.257 1.257 1.257h6.287c.694 0 1.257-.563 1.257-1.257ZM33.797 62.893v-6.287c0-.694-.563-1.257-1.257-1.257h-6.287c-.694 0-1.257.563-1.257 1.257v6.287c0 .694.563 1.257 1.257 1.257h6.287c.694 0 1.257-.563 1.257-1.257ZM64.148 32.544v-6.287c0-.694-.562-1.257-1.257-1.257h-6.286c-.695 0-1.258.563-1.258 1.257v6.287c0 .694.563 1.257 1.258 1.257h6.286c.695 0 1.257-.563 1.257-1.257ZM64.148 62.893v-6.287c0-.694-.562-1.257-1.257-1.257h-6.286c-.695 0-1.258.563-1.258 1.257v6.287c0 .694.563 1.257 1.258 1.257h6.286c.695 0 1.257-.563 1.257-1.257Z" fill="#FFF281" stroke="#161616" stroke-width="2" stroke-linecap="round" stroke-linejoin="round"/></svg>
